public/icons/left.svg

<svg width="51" height="37" viewBox="0 0 51 37" fill="none" xmlns="http://www.w3.org/2000/svg">
<path d="M19.6467 1.14183L19.6456 1.1408C19.3925 0.892679 19.0521 0.7537 18.6977 0.7537C18.3432 0.7537 18.0029 0.892679 17.7498 1.1408L17.7498 1.14079L17.7481 1.14244L1.34019 17.5283L1.34013 17.5282L1.33562 17.533C1.15103 17.7272 1.02717 17.9711 0.979231 18.2348C0.931294 18.4984 0.961371 18.7703 1.06577 19.0171L1.06556 19.0172L1.07018 19.027C1.12632 19.1452 1.1993 19.2547 1.28685 19.352L1.2866 19.3522L1.29579 19.3614L17.6816 35.7693L17.6815 35.7694L17.6869 35.7745C17.9424 36.0155 18.2803 36.1497 18.6314 36.1497C18.9826 36.1497 19.3205 36.0155 19.5759 35.7745L19.576 35.7746L19.5804 35.7702C19.7073 35.6443 19.8081 35.4945 19.8768 35.3295C19.9456 35.1645 19.981 34.9875 19.981 34.8087C19.981 34.6299 19.9456 34.4529 19.8768 34.2879C19.8081 34.123 19.7075 33.9733 19.5806 33.8475C19.5806 33.8474 19.5805 33.8473 19.5804 33.8473L5.58749 19.8543H48.6869C49.046 19.8543 49.3904 19.7117 49.6444 19.4577C49.8984 19.2038 50.041 18.8593 50.041 18.5002C50.041 18.141 49.8984 17.7966 49.6444 17.5426C49.3904 17.2887 49.046 17.146 48.6869 17.146H5.56541L19.6467 3.06475C19.6467 3.06466 19.6468 3.06457 19.6469 3.06448C19.7737 2.93865 19.8744 2.78897 19.9431 2.62407C20.0118 2.45905 20.0472 2.28206 20.0472 2.10329C20.0472 1.92453 20.0118 1.74753 19.9431 1.58251C19.8743 1.4175 19.7736 1.26772 19.6467 1.14183Z" fill="#F0B270" stroke="#F0B270" stroke-width="0.5"/>
</svg>

<svg width="51" height="37" fill="none" xmlns="http://www.w3.org/2000/svg"><path d="m19.647 1.142-.001-.001a1.354 1.354 0 0 0-1.896 0l-.002.001L1.34 17.528l-.004.005a1.376 1.376 0 0 0-.27 1.484l.004.01c.056.118.13.228.217.325l.009.01 16.386 16.407.005.006a1.377 1.377 0 0 0 1.889 0l.004-.005a1.354 1.354 0 0 0 0-1.923L5.587 19.854h43.1a1.354 1.354 0 1 0 0-2.708H5.565L19.647 3.065a1.354 1.354 0 0 0 0-1.923Z" fill="#F0B270" stroke="#F0B270" stroke-width=".5"/></svg>
